;FLAVOR:Marlin
;TIME:3101
;Filament used: 5.75831m
;Layer height: 0.3
;Generated with Cura_SteamEngine 1.1.0
M190 S45
M104 S235
M109 S235
G28
G1 Z50.00 F400
G92 E0
G1 F200 E3
G92 E0
M132 X Y Z A
M907 X100 Y100 Z50 A100
;LAYER_COUNT:86
;LAYER:0
M107
G0 F1800 X37.8 Y-30.201 Z0.3
;TYPE:SKIRT
G1 F1500 X37.8 Y30.201 E3.01347
G1 X37.76 Y30.99 E3.05288
G1 X37.641 Y31.77 E3.09225
G1 X37.443 Y32.535 E3.13167
G1 X37.169 Y33.275 E3.17104
G1 X36.821 Y33.984 E3.21044
G1 X36.403 Y34.655 E3.24988
G1 X35.92 Y35.279 E3.28925
G1 X35.515 Y35.716 E3.31898
G1 X35.398 Y35.833 E3.32723
G1 X34.812 Y36.363 E3.36665
G1 X34.176 Y36.83 E3.40602
G1 X33.496 Y37.231 E3.4454
G1 X32.778 Y37.561 E3.48482
G1 X32.031 Y37.816 E3.5242
G1 X31.262 Y37.995 E3.56359
G1 X30.478 Y38.095 E3.60303
G1 X29.883 Y38.118 E3.63273
G1 X-29.883 Y38.118 E6.61447
G1 X-30.672 Y38.078 E6.65388
G1 X-31.452 Y37.959 E6.69325
G1 X-32.217 Y37.761 E6.73267
G1 X-32.957 Y37.487 E6.77204
G1 X-33.666 Y37.139 E6.81144
G1 X-34.337 Y36.721 E6.85088
G1 X-34.961 Y36.238 E6.89025
G1 X-35.398 Y35.833 E6.91998
G1 X-35.515 Y35.716 E6.92823
G1 X-36.045 Y35.13 E6.96765
G1 X-36.512 Y34.494 E7.00702
G1 X-36.913 Y33.814 E7.0464
G1 X-37.243 Y33.096 E7.08583
G1 X-37.498 Y32.349 E7.12521
G1 X-37.677 Y31.58 E7.1646
G1 X-37.777 Y30.796 E7.20403
G1 X-37.8 Y30.201 E7.23373
G1 X-37.8 Y-30.201 E10.2472
G1 X-37.76 Y-30.99 E10.28662
G1 X-37.641 Y-31.77 E10.32598
G1 X-37.443 Y-32.535 E10.3654
G1 X-37.169 Y-33.275 E10.40477
G1 X-36.821 Y-33.984 E10.44418
G1 X-36.403 Y-34.655 E10.48362
G1 X-35.92 Y-35.279 E10.52298
G1 X-35.515 Y-35.716 E10.55271
G1 X-35.398 Y-35.833 E10.56096
G1 X-34.812 Y-36.363 E10.60038
G1 X-34.176 Y-36.83 E10.63975
G1 X-33.496 Y-37.231 E10.67913
G1 X-32.778 Y-37.561 E10.71856
G1 X-32.031 Y-37.816 E10.75794
G1 X-31.262 Y-37.995 E10.79733
G1 X-30.478 Y-38.095 E10.83676
G1 X-29.883 Y-38.118 E10.86647
G1 X29.883 Y-38.118 E13.8482
G1 X30.672 Y-38.078 E13.88762
G1 X31.452 Y-37.959 E13.92698
G1 X32.217 Y-37.761 E13.96641
G1 X32.957 Y-37.487 E14.00577
G1 X33.666 Y-37.139 E14.04518
G1 X34.337 Y-36.721 E14.08462
G1 X34.961 Y-36.238 E14.12399
G1 X35.398 Y-35.833 E14.15371
G1 X35.515 Y-35.716 E14.16197
G1 X36.045 Y-35.13 E14.20139
G1 X36.512 Y-34.494 E14.24075
G1 X36.913 Y-33.814 E14.28014
G1 X37.243 Y-33.096 E14.31956
G1 X37.498 Y-32.349 E14.35894
G1 X37.677 Y-31.58 E14.39833
G1 X37.777 Y-30.796 E14.43776
G1 X37.8 Y-30.201 E14.46747
G0 F1800 X37.4 Y-30.201
G1 F1500 X37.4 Y30.201 E17.48094
G1 X37.36 Y30.969 E17.5193
G1 X37.241 Y31.729 E17.55768
G1 X37.043 Y32.472 E17.59604
G1 X36.769 Y33.191 E17.63443
G1 X36.422 Y33.877 E17.67279
G1 X36.006 Y34.524 E17.71116
G1 X35.525 Y35.124 E17.74953
G1 X35.233 Y35.434 E17.77077
G1 X35.116 Y35.551 E17.77903
G1 X34.544 Y36.065 E17.81739
G1 X33.922 Y36.518 E17.85578
G1 X33.257 Y36.904 E17.89415
G1 X32.555 Y37.219 E17.93253
G1 X31.824 Y37.459 E17.97092
G1 X31.073 Y37.622 E18.00926
G1 X30.308 Y37.706 E18.04765
G1 X29.883 Y37.718 E18.06886
G1 X-29.883 Y37.718 E21.0506
G1 X-30.651 Y37.678 E21.08897
G1 X-31.411 Y37.559 E21.12735
G1 X-32.154 Y37.361 E21.16571
G1 X-32.873 Y37.087 E21.2041
G1 X-33.559 Y36.74 E21.24245
G1 X-34.206 Y36.324 E21.28083
G1 X-34.806 Y35.843 E21.31919
G1 X-35.116 Y35.551 E21.34044
G1 X-35.233 Y35.434 E21.34869
G1 X-35.747 Y34.862 E21.38706
G1 X-36.2 Y34.24 E21.42545
G1 X-36.586 Y33.575 E21.46381
G1 X-36.901 Y32.873 E21.5022
G1 X-37.141 Y32.142 E21.54058
G1 X-37.304 Y31.391 E21.57892
G1 X-37.388 Y30.626 E21.61732
G1 X-37.4 Y30.201 E21.63853
G1 X-37.4 Y-30.201 E24.652
G1 X-37.36 Y-30.969 E24.69037
G1 X-37.241 Y-31.729 E24.72874
G1 X-37.043 Y-32.472 E24.76711
G1 X-36.769 Y-33.191 E24.80549
G1 X-36.422 Y-33.877 E24.84385
G1 X-36.006 Y-34.524 E24.88222
G1 X-35.525 Y-35.124 E24.92059
G1 X-35.233 Y-35.434 E24.94184
G1 X-35.116 Y-35.551 E24.95009
G1 X-34.544 Y-36.065 E24.98846
G1 X-33.922 Y-36.518 E25.02685
G1 X-33.257 Y-36.904 E25.06521
G1 X-32.555 Y-37.219 E25.10359
G1 X-31.824 Y-37.459 E25.14198
G1 X-31.073 Y-37.622 E25.18032
G1 X-30.308 Y-37.706 E25.21872
G1 X-29.883 Y-37.718 E25.23993
G1 X29.883 Y-37.718 E28.22166
G1 X30.651 Y-37.678 E28.26003
G1 X31.411 Y-37.559 E28.29841
G1 X32.154 Y-37.361 E28.33677
G1 X32.873 Y-37.087 E28.37516
G1 X33.559 Y-36.74 E28.41351
G1 X34.206 Y-36.324 E28.45189
G1 X34.806 Y-35.843 E28.49026
G1 X35.116 Y-35.551 E28.5115
G1 X35.233 Y-35.434 E28.51976
G1 X35.747 Y-34.862 E28.55812
G1 X36.2 Y-34.24 E28.59651
G1 X36.586 Y-33.575 E28.63487
G1 X36.901 Y-32.873 E28.67326
G1 X37.141 Y-32.142 E28.71165
G1 X37.304 Y-31.391 E28.74999
G1 X37.388 Y-30.626 E28.78838
G1 X37.4 Y-30.201 E28.80959
G0 F1800 X37 Y-30.201
G1 F1500 X37 Y30.201 E31.82306
G1 X36.96 Y30.948 E31.86038
G1 X36.841 Y31.686 E31.89768
G1 X36.643 Y32.408 E31.93503
G1 X36.37 Y33.104 E31.97233
G1 X36.023 Y33.767 E32.00966
G1 X35.608 Y34.39 E32.04701
G1 X34.95 Y35.151 E32.0972
G1 X34.833 Y35.268 E32.10545
G1 X34.276 Y35.768 E32.1428
G1 X33.67 Y36.205 E32.18007
G1 X33.02 Y36.576 E32.21741
G1 X32.334 Y36.875 E32.25474
G1 X31.62 Y37.099 E32.29208
G1 X30.887 Y37.246 E32.32937
G1 X29.883 Y37.318 E32.37959
G1 X-29.883 Y37.318 E35.36133
G1 X-30.63 Y37.278 E35.39865
G1 X-31.368 Y37.159 E35.43595
G1 X-32.09 Y36.961 E35.4733
G1 X-32.786 Y36.688 E35.5106
G1 X-33.449 Y36.341 E35.54793
G1 X-34.072 Y35.926 E35.58528
G1 X-34.833 Y35.268 E35.63547
G1 X-34.95 Y35.151 E35.64372
G1 X-35.45 Y34.594 E35.68106
G1 X-35.887 Y33.988 E35.71834
G1 X-36.258 Y33.338 E35.75568
G1 X-36.557 Y32.652 E35.79301
G1 X-36.781 Y31.938 E35.83035
G1 X-36.928 Y31.205 E35.86764
G1 X-37 Y30.201 E35.91786
G1 X-37 Y-30.201 E38.93133
G1 X-36.96 Y-30.948 E38.96865
G1 X-36.841 Y-31.686 E39.00595
G1 X-36.643 Y-32.408 E39.0433
G1 X-36.37 Y-33.104 E39.0806
G1 X-36.023 Y-33.767 E39.11793
G1 X-35.608 Y-34.39 E39.15528
G1 X-34.95 Y-35.151 E39.20547
G1 X-34.833 Y-35.268 E39.21372
G1 X-34.276 Y-35.768 E39.25106
G1 X-33.67 Y-36.205 E39.28834
G1 X-33.02 Y-36.576 E39.32568
G1 X-32.334 Y-36.875 E39.36301
G1 X-31.62 Y-37.099 E39.40035
G1 X-30.887 Y-37.246 E39.43764
G1 X-29.883 Y-37.318 E39.48786
G1 X29.883 Y-37.318 E42.4696
G1 X30.63 Y-37.278 E42.50692
G1 X31.368 Y-37.159 E42.54422
G1 X32.09 Y-36.961 E42.58157
G1 X32.786 Y-36.688 E42.61887
G1 X33.449 Y-36.341 E42.6562
G1 X34.072 Y-35.926 E42.69355
G1 X34.833 Y-35.268 E42.74374
G1 X34.95 Y-35.151 E42.75199
G1 X35.45 Y-34.594 E42.78933
G1 X35.887 Y-33.988 E42.82661
G1 X36.258 Y-33.338 E42.86395
G1 X36.557 Y-32.652 E42.90128
G1 X36.781 Y-31.938 E42.93862
G1 X36.928 Y-31.205 E42.97591
G1 X37 Y-30.201 E43.02613
G0 F1800 X36.6 Y-30.201
G1 F1500 X36.6 Y30.201 E46.0396
G1 X36.56 Y30.926 E46.07582
G1 X36.441 Y31.643 E46.11209
G1 X36.243 Y32.342 E46.14833
G1 X35.97 Y33.015 E46.18456
G1 X35.625 Y33.654 E46.22079
G1 X35.211 Y34.251 E46.25704
G1 X34.667 Y34.868 E46.29808
G1 X34.55 Y34.985 E46.30633
G1 X34.009 Y35.469 E46.34255
G1 X33.418 Y35.892 E46.37881
G1 X32.784 Y36.246 E46.41503
G1 X32.115 Y36.529 E46.45127
G1 X31.419 Y36.737 E46.48751
G1 X30.704 Y36.867 E46.52377
G1 X29.883 Y36.918 E46.56481
G1 X-29.883 Y36.918 E49.54655
G1 X-30.608 Y36.878 E49.58277
G1 X-31.325 Y36.759 E49.61903
G1 X-32.024 Y36.561 E49.65528
G1 X-32.697 Y36.288 E49.69151
G1 X-33.336 Y35.943 E49.72774
G1 X-33.933 Y35.529 E49.76399
G1 X-34.55 Y34.985 E49.80503
G1 X-34.667 Y34.868 E49.81328
G1 X-35.151 Y34.327 E49.8495
G1 X-35.574 Y33.736 E49.88576
G1 X-35.928 Y33.102 E49.92198
G1 X-36.211 Y32.433 E49.95822
G1 X-36.419 Y31.737 E49.99446
G1 X-36.549 Y31.022 E50.03072
G1 X-36.6 Y30.201 E50.07176
G1 X-36.6 Y-30.201 E53.08523
G1 X-36.56 Y-30.926 E53.12145
G1 X-36.441 Y-31.643 E53.15771
G1 X-36.243 Y-32.342 E53.19396
G1 X-35.97 Y-33.015 E53.23019
G1 X-35.625 Y-33.654 E53.26642
G1 X-35.211 Y-34.251 E53.30267
G1 X-34.667 Y-34.868 E53.3437
G1 X-34.55 Y-34.985 E53.35196
G1 X-34.009 Y-35.469 E53.38818
G1 X-33.418 Y-35.892 E53.42443
G1 X-32.784 Y-36.246 E53.46066
G1 X-32.115 Y-36.529 E53.4969
G1 X-31.419 Y-36.737 E53.53314
G1 X-30.704 Y-36.867 E53.5694
G1 X-29.883 Y-36.918 E53.61044
G1 X29.883 Y-36.918 E56.59218
G1 X30.608 Y-36.878 E56.6284
G1 X31.325 Y-36.759 E56.66466
G1 X32.024 Y-36.561 E56.70091
G1 X32.697 Y-36.288 E56.73714
G1 X33.336 Y-35.943 E56.77337
G1 X33.933 Y-35.529 E56.80962
G1 X34.55 Y-34.985 E56.85065
G1 X34.667 Y-34.868 E56.85891
G1 X35.151 Y-34.327 E56.89512
G1 X35.574 Y-33.736 E56.93138
G1 X35.928 Y-33.102 E56.96761
G1 X36.211 Y-32.433 E57.00385
G1 X36.419 Y-31.737 E57.04009
G1 X36.549 Y-31.022 E57.07635
G1 X36.6 Y-30.201 E57.11739
G0 F1800 X36.2 Y-30.201
G1 F1500 X36.2 Y30.201 E60.13085
G1 X36.16 Y30.904 E60.16598
G1 X36.041 Y31.598 E60.20111
G1 X35.843 Y32.273 E60.23621
G1 X35.571 Y32.922 E60.27132
G1 X35.226 Y33.536 E60.30645
G1 X34.815 Y34.107 E60.34155
G1 X34.384 Y34.585 E60.37366
G1 X34.267 Y34.702 E60.38192
G1 X33.742 Y35.171 E60.41704
G1 X33.167 Y35.577 E60.45216
G1 X32.549 Y35.915 E60.4873
G1 X31.898 Y36.182 E60.5224
G1 X31.22 Y36.372 E60.55753
G1 X30.525 Y36.485 E60.59266
G1 X29.883 Y36.518 E60.62473
G1 X-29.883 Y36.518 E63.60647
G1 X-30.586 Y36.478 E63.6416
G1 X-31.28 Y36.359 E63.67673
G1 X-31.955 Y36.161 E63.71182
G1 X-32.604 Y35.889 E63.74693
G1 X-33.218 Y35.544 E63.78207
G1 X-33.789 Y35.133 E63.81717
G1 X-34.267 Y34.702 E63.84928
G1 X-34.384 Y34.585 E63.85753
G1 X-34.853 Y34.06 E63.89265
G1 X-35.259 Y33.485 E63.92777
G1 X-35.597 Y32.867 E63.96291
G1 X-35.864 Y32.216 E63.99802
G1 X-36.054 Y31.538 E64.03315
G1 X-36.167 Y30.843 E64.06827
G1 X-36.2 Y30.201 E64.10035
G1 X-36.2 Y-30.201 E67.11381
G1 X-36.16 Y-30.904 E67.14894
G1 X-36.041 Y-31.598 E67.18407
G1 X-35.843 Y-32.273 E67.21917
G1 X-35.571 Y-32.922 E67.25428
G1 X-35.226 Y-33.536 E67.28941
G1 X-34.815 Y-34.107 E67.32451
G1 X-34.384 Y-34.585 E67.35662
G1 X-34.267 Y-34.702 E67.36488
G1 X-33.742 Y-35.171 E67.4
G1 X-33.167 Y-35.577 E67.43512
G1 X-32.549 Y-35.915 E67.47026
G1 X-31.898 Y-36.182 E67.50536
G1 X-31.22 Y-36.372 E67.54049
G1 X-30.525 Y-36.485 E67.57562
G1 X-29.883 Y-36.518 E67.60769
G1 X29.883 Y-36.518 E70.58943
G1 X30.586 Y-36.478 E70.62456
G1 X31.28 Y-36.359 E70.65969
G1 X31.955 Y-36.161 E70.69478
G1 X32.604 Y-35.889 E70.72989
G1 X33.218 Y-35.544 E70.76503
G1 X33.789 Y-35.133 E70.80013
G1 X34.267 Y-34.702 E70.83224
G1 X34.384 Y-34.585 E70.84049
G1 X34.853 Y-34.06 E70.87561
G1 X35.259 Y-33.485 E70.91073
G1 X35.597 Y-32.867 E70.94587
G1 X35.864 Y-32.216 E70.98098
G1 X36.054 Y-31.538 E71.01611
G1 X36.167 Y-30.843 E71.05124
G1 X36.2 Y-30.201 E71.08331
G0 F1800 X35.8 Y-30.201
G1 F1500 X35.8 Y30.201 E74.09678
G1 X35.76 Y30.881 E74.13076
G1 X35.641 Y31.551 E74.16471
G1 X35.444 Y32.203 E74.19869
G1 X35.172 Y32.827 E74.23265
G1 X34.828 Y33.415 E74.26664
G1 X34.418 Y33.959 E74.30062
G1 X34.101 Y34.302 E74.32392
G1 X33.984 Y34.419 E74.33218
G1 X33.475 Y34.872 E74.36617
G1 X32.917 Y35.261 E74.40011
G1 X32.317 Y35.583 E74.43408
G1 X31.683 Y35.832 E74.46806
G1 X31.024 Y36.005 E74.50206
G1 X30.35 Y36.099 E74.53601
G1 X29.883 Y36.118 E74.55933
G1 X-29.883 Y36.118 E77.54106
G1 X-30.563 Y36.078 E77.57505
G1 X-31.233 Y35.959 E77.609
G1 X-31.885 Y35.762 E77.64298
G1 X-32.509 Y35.49 E77.67694
G1 X-33.097 Y35.146 E77.71092
G1 X-33.641 Y34.736 E77.74491
G1 X-33.984 Y34.419 E77.76821
G1 X-34.101 Y34.302 E77.77647
G1 X-34.554 Y33.793 E77.81046
G1 X-34.943 Y33.235 E77.8444
G1 X-35.265 Y32.635 E77.87837
G1 X-35.514 Y32.001 E77.91235
G1 X-35.687 Y31.342 E77.94634
G1 X-35.781 Y30.668 E77.98029
G1 X-35.8 Y30.201 E78.00361
G1 X-35.8 Y-30.201 E81.01708
G1 X-35.76 Y-30.881 E81.05106
G1 X-35.641 Y-31.551 E81.08501
G1 X-35.444 Y-32.203 E81.119
G1 X-35.172 Y-32.827 E81.15296
G1 X-34.828 Y-33.415 E81.18694
G1 X-34.418 Y-33.959 E81.22093
G1 X-34.101 Y-34.302 E81.24423
G1 X-33.984 Y-34.419 E81.25248
G1 X-33.475 Y-34.872 E81.28648
G1 X-32.917 Y-35.261 E81.32041
G1 X-32.317 Y-35.583 E81.35439
G1 X-31.683 Y-35.832 E81.38837
G1 X-31.024 Y-36.005 E81.42236
G1 X-30.35 Y-36.099 E81.45631
G1 X-29.883 Y-36.118 E81.47963
G1 X29.883 Y-36.118 E84.46137
G1 X30.563 Y-36.078 E84.49535
G1 X31.233 Y-35.959 E84.5293
G1 X31.885 Y-35.762 E84.56328
G1 X32.509 Y-35.49 E84.59724
G1 X33.097 Y-35.146 E84.63123
G1 X33.641 Y-34.736 E84.66522
G1 X33.984 Y-34.419 E84.68852
G1 X34.101 Y-34.302 E84.69677
G1 X34.554 Y-33.793 E84.73077
G1 X34.943 Y-33.235 E84.7647
G1 X35.265 Y-32.635 E84.79867
G1 X35.514 Y-32.001 E84.83266
G1 X35.687 Y-31.342 E84.86665
G1 X35.781 Y-30.668 E84.9006
G1 X35.8 Y-30.201 E84.92392
G0 F1800 X35.4 Y-30.201
G1 F1500 X35.4 Y30.201 E87.93739
G1 X35.36 Y30.857 E87.97017
G1 X35.241 Y31.503 E88.00295
G1 X35.044 Y32.13 E88.03573
G1 X34.772 Y32.728 E88.06851
G1 X34.43 Y33.289 E88.10129
G1 X33.818 Y34.019 E88.14882
G1 X33.701 Y34.136 E88.15707
G1 X33.209 Y34.572 E88.18987
G1 X32.668 Y34.944 E88.22262
G1 X32.086 Y35.248 E88.25538
G1 X31.471 Y35.479 E88.28816
G1 X30.832 Y35.634 E88.32096
G1 X29.883 Y35.718 E88.36849
G1 X-29.883 Y35.718 E91.35023
G1 X-30.539 Y35.678 E91.38302
G1 X-31.185 Y35.559 E91.41579
G1 X-31.812 Y35.362 E91.44858
G1 X-32.41 Y35.09 E91.48135
G1 X-32.971 Y34.748 E91.51413
G1 X-33.701 Y34.136 E91.56166
G1 X-33.818 Y34.019 E91.56991
G1 X-34.254 Y33.527 E91.60271
G1 X-34.626 Y32.986 E91.63547
G1 X-34.93 Y32.404 E91.66823
G1 X-35.161 Y31.789 E91.701
G1 X-35.316 Y31.15 E91.73381
G1 X-35.4 Y30.201 E91.78134
G1 X-35.4 Y-30.201 E94.7948
G1 X-35.36 Y-30.857 E94.82759
G1 X-35.241 Y-31.503 E94.86036
G1 X-35.044 Y-32.13 E94.89315
G1 X-34.772 Y-32.728 E94.92593
G1 X-34.43 Y-33.289 E94.95871
G1 X-33.818 Y-34.019 E95.00623
G1 X-33.701 Y-34.136 E95.01449
G1 X-33.209 Y-34.572 E95.04729
G1 X-32.668 Y-34.944 E95.08004
G1 X-32.086 Y-35.248 E95.1128
G1 X-31.471 Y-35.479 E95.14558
G1 X-30.832 Y-35.634 E95.17838
G1 X-29.883 Y-35.718 E95.22591
G1 X29.883 Y-35.718 E98.20765
G1 X30.539 Y-35.678 E98.24044
G1 X31.185 Y-35.559 E98.27321
G1 X31.812 Y-35.362 E98.306
G1 X32.41 Y-35.09 E98.33877
G1 X32.971 Y-34.748 E98.37155
G1 X33.701 Y-34.136 E98.41908
G1 X33.818 Y-34.019 E98.42733
G1 X34.254 Y-33.527 E98.46013
G1 X34.626 Y-32.986 E98.49289
G1 X34.93 Y-32.404 E98.52564
G1 X35.161 Y-31.789 E98.55842
G1 X35.316 Y-31.15 E98.59122
G1 X35.4 Y-30.201 E98.63875
G0 F1800 X35 Y-30.201
G1 F1500 X35 Y30.201 E101.65222
G1 X34.96 Y30.832 E101.68377
G1 X34.841 Y31.453 E101.71531
G1 X34.644 Y32.053 E101.74682
G1 X34.373 Y32.625 E101.7784
G1 X34.033 Y33.157 E101.8099
G1 X33.536 Y33.737 E101.848
G1 X33.419 Y33.854 E101.85626
G1 X32.944 Y34.271 E101.88779
G1 X32.421 Y34.626 E101.91933
G1 X31.857 Y34.912 E101.95088
G1 X31.262 Y35.124 E101.98239
G1 X30.644 Y35.26 E102.01396
G1 X29.883 Y35.318 E102.05204
G1 X-29.883 Y35.318 E105.03377
G1 X-30.514 Y35.278 E105.06532
G1 X-31.135 Y35.159 E105.09686
G1 X-31.735 Y34.962 E105.12837
G1 X-32.307 Y34.691 E105.15995
G1 X-32.839 Y34.351 E105.19145
G1 X-33.419 Y33.854 E105.22955
G1 X-33.536 Y33.737 E105.23781
G1 X-33.953 Y33.262 E105.26934
G1 X-34.308 Y32.739 E105.30088
G1 X-34.594 Y32.175 E105.33243
G1 X-34.806 Y31.58 E105.36394
G1 X-34.942 Y30.962 E105.39551
G1 X-35 Y30.201 E105.43359
G1 X-35 Y-30.201 E108.44705
G1 X-34.96 Y-30.832 E108.4786
G1 X-34.841 Y-31.453 E108.51014
G1 X-34.644 Y-32.053 E108.54165
G1 X-34.373 Y-32.625 E108.57323
G1 X-34.033 Y-33.157 E108.60473
G1 X-33.536 Y-33.737 E108.64283
G1 X-33.419 Y-33.854 E108.65109
G1 X-32.944 Y-34.271 E108.68262
G1 X-32.421 Y-34.626 E108.71416
G1 X-31.857 Y-34.912 E108.74571
G1 X-31.262 Y-35.124 E108.77722
G1 X-30.644 Y-35.26 E108.80879
G1 X-29.883 Y-35.318 E108.84687
G1 X29.883 Y-35.318 E111.8286
G1 X30.514 Y-35.278 E111.86015
G1 X31.135 Y-35.159 E111.89169
G1 X31.735 Y-34.962 E111.9232
G1 X32.307 Y-34.691 E111.95478
G1 X32.839 Y-34.351 E111.98628
G1 X33.419 Y-33.854 E112.02438
