;FLAVOR:Marlin
;TIME:4932
;Filament used: 4.79305m
;Layer height: 0.2
;Generated with Cura_SteamEngine 1.1.0
M190 S45
M104 S220
M109 S220
G28
G1 Z50.00 F400
G92 E0
G1 F200 E3
G92 E0
M132 X Y Z A
M907 X100 Y100 Z50 A100
;LAYER_COUNT:47
;LAYER:0
M107
G0 F3000 X43.475 Y-53.378 Z0.3
;TYPE:SKIRT
G1 F1500 X43.711 Y-53.185 E0.01521
G1 X46.931 Y-50.368 E0.22866
G1 X47.121 Y-50.192 E0.24158
G1 X49.067 Y-48.295 E0.37716
G1 X49.218 Y-48.14 E0.38796
G1 X51.423 Y-45.787 E0.54884
G1 X51.623 Y-45.56 E0.56393
G1 X54.787 Y-41.726 E0.81193
G1 X54.987 Y-41.467 E0.82826
G1 X57.277 Y-38.271 E1.02441
G1 X57.445 Y-38.02 E1.03948
G1 X59.702 Y-34.41 E1.25189
G1 X59.857 Y-34.143 E1.26729
G1 X61.819 Y-30.504 E1.47355
G1 X61.971 Y-30.197 E1.49064
G1 X64.104 Y-25.46 E1.74982
G1 X64.232 Y-25.147 E1.76669
G1 X65.595 Y-21.443 E1.9636
G1 X65.687 Y-21.165 E1.97821
G1 X66.838 Y-17.332 E2.17787
G1 X66.907 Y-17.077 E2.19105
G1 X67.656 Y-13.971 E2.35045
G1 X67.713 Y-13.705 E2.36403
G1 X68.463 Y-9.58 E2.5732
G1 X68.507 Y-9.279 E2.58837
G1 X68.984 Y-5.202 E2.79316
G1 X69.01 Y-4.899 E2.80834
G1 X69.229 Y-.79 E3.01363
G1 X69.236 Y-.488 E3.0287
G1 X69.196 Y3.609 E3.23311
G1 X69.183 Y3.91 E3.24814
G1 X68.886 Y7.991 E3.45228
G1 X68.856 Y8.285 E3.46702
G1 X68.328 Y12.198 E3.66401
G1 X68.278 Y12.497 E3.67914
G1 X67.442 Y16.678 E3.89186
G1 X67.386 Y16.925 E3.90449
G1 X66.745 Y19.434 E4.03369
G1 X66.686 Y19.645 E4.04462
G1 X65.682 Y22.94 E4.21647
G1 X65.592 Y23.206 E4.23048
G1 X64.154 Y27.094 E4.43729
G1 X64.04 Y27.376 E4.45247
G1 X62.382 Y31.113 E4.65643
G1 X62.286 Y31.315 E4.66759
G1 X61.378 Y33.128 E4.76875
G1 X61.258 Y33.353 E4.78147
G1 X58.838 Y37.605 E5.02556
G1 X58.666 Y37.884 E5.04191
G1 X56.457 Y41.214 E5.24128
G1 X56.278 Y41.466 E5.2567
G1 X53.63 Y44.95 E5.47502
G1 X53.435 Y45.191 E5.49049
G1 X50.782 Y48.249 E5.69246
G1 X50.575 Y48.472 E5.70764
G1 X47.594 Y51.498 E5.91956
G1 X47.385 Y51.698 E5.93399
G1 X44.705 Y54.108 E6.11381
G1 X44.485 Y54.294 E6.12818
G1 X41.17 Y56.933 E6.33958
G1 X40.927 Y57.114 E6.35469
G1 X37.662 Y59.393 E6.55334
G1 X37.411 Y59.557 E6.5683
G1 X33.873 Y61.711 E6.77495
G1 X33.612 Y61.859 E6.78992
G1 X30.054 Y63.731 E6.9905
G1 X29.775 Y63.867 E7.00599
G1 X25.747 Y65.664 E7.22603
G1 X25.466 Y65.778 E7.24116
G1 X21.869 Y67.117 E7.43265
G1 X21.593 Y67.211 E7.4472
G1 X17.7 Y68.397 E7.65023
G1 X17.439 Y68.468 E7.66373
G1 X14.239 Y69.249 E7.82806
G1 X13.969 Y69.307 E7.84184
G1 X9.829 Y70.068 E8.05184
G1 X9.528 Y70.113 E8.06703
G1 X5.562 Y70.585 E8.26629
G1 X5.269 Y70.611 E8.28096
G1 X1.187 Y70.844 E8.48495
G1 X0.885 Y70.852 E8.50002
G1 X-3.188 Y70.828 E8.70323
G1 X-3.489 Y70.817 E8.71825
G1 X-7.59 Y70.535 E8.92334
G1 X-7.891 Y70.504 E8.93843
G1 X-11.985 Y69.962 E9.14446
G1 X-12.283 Y69.913 E9.15953
G1 X-16.246 Y69.132 E9.36105
G1 X-16.527 Y69.068 E9.37543
G1 X-20.205 Y68.111 E9.56503
G1 X-20.487 Y68.028 E9.5797
G1 X-24.458 Y66.73 E9.78813
G1 X-24.744 Y66.627 E9.80329
G1 X-28.551 Y65.11 E10.00775
G1 X-28.823 Y64.992 E10.02254
G1 X-32.41 Y63.299 E10.22043
G1 X-32.674 Y63.164 E10.23522
G1 X-36.225 Y61.211 E10.43741
G1 X-36.484 Y61.058 E10.45242
G1 X-39.973 Y58.844 E10.65857
G1 X-40.227 Y58.671 E10.6739
G1 X-43.643 Y56.183 E10.88474
G1 X-43.881 Y55.998 E10.89978
G1 X-46.938 Y53.463 E11.09791
G1 X-47.161 Y53.266 E11.11276
G1 X-50.131 Y50.475 E11.31609
G1 X-50.296 Y50.313 E11.32762
G1 X-51.876 Y48.678 E11.44106
G1 X-52.031 Y48.509 E11.4525
G1 X-54.596 Y45.587 E11.64648
G1 X-54.781 Y45.363 E11.66097
G1 X-57.248 Y42.185 E11.86169
G1 X-57.423 Y41.944 E11.87655
G1 X-59.731 Y38.555 E12.08111
G1 X-59.894 Y38.3 E12.09621
G1 X-61.969 Y34.798 E12.29929
G1 X-62.113 Y34.536 E12.31421
G1 X-63.973 Y30.897 E12.5181
G1 X-64.102 Y30.623 E12.53321
G1 X-65.746 Y26.835 E12.73922
G1 X-65.848 Y26.581 E12.75288
G1 X-66.973 Y23.522 E12.91549
G1 X-67.059 Y23.264 E12.92905
G1 X-68.276 Y19.271 E13.13731
G1 X-68.356 Y18.977 E13.15251
G1 X-69.307 Y14.956 E13.35866
G1 X-69.365 Y14.671 E13.37317
G1 X-69.997 Y11.026 E13.55773
G1 X-70.038 Y10.743 E13.572
G1 X-70.499 Y6.645 E13.77774
G1 X-70.523 Y6.344 E13.7928
G1 X-70.722 Y2.296 E13.995
G1 X-70.727 Y1.966 E14.01146
G1 X-70.632 Y-2.901 E14.25433
G1 X-70.615 Y-3.221 E14.27031
G1 X-70.278 Y-7.109 E14.46501
G1 X-70.243 Y-7.408 E14.48003
G1 X-69.612 Y-11.607 E14.69187
G1 X-69.557 Y-11.908 E14.70714
G1 X-68.695 Y-15.896 E14.9107
G1 X-68.63 Y-16.16 E14.92426
G1 X-67.75 Y-19.346 E15.08916
G1 X-67.671 Y-19.602 E15.10253
G1 X-66.402 Y-23.364 E15.30061
G1 X-66.299 Y-23.642 E15.3154
G1 X-64.745 Y-27.453 E15.52073
G1 X-64.622 Y-27.728 E15.53576
G1 X-62.873 Y-31.35 E15.73643
G1 X-62.736 Y-31.614 E15.75126
G1 X-60.725 Y-35.193 E15.95608
G1 X-60.569 Y-35.452 E15.97116
G1 X-58.367 Y-38.851 E16.17321
G1 X-58.194 Y-39.099 E16.1883
G1 X-55.703 Y-42.46 E16.39701
G1 X-55.513 Y-42.7 E16.41229
G1 X-52.843 Y-45.86 E16.61868
G1 X-52.641 Y-46.085 E16.63377
G1 X-49.822 Y-49.023 E16.8369
G1 X-49.61 Y-49.231 E16.85172
G1 X-46.665 Y-51.943 E17.05146
G1 X-46.439 Y-52.138 E17.06635
G1 X-43.242 Y-54.734 E17.27181
G1 X-43.002 Y-54.917 E17.28687
G1 X-39.718 Y-57.258 E17.48807
G1 X-39.459 Y-57.43 E17.50358
G1 X-35.694 Y-59.761 E17.72451
G1 X-35.423 Y-59.917 E17.74011
G1 X-31.758 Y-61.868 E17.94725
G1 X-31.485 Y-62.002 E17.96242
G1 X-27.826 Y-63.662 E18.16288
G1 X-27.547 Y-63.778 E18.17795
G1 X-23.587 Y-65.282 E18.38928
G1 X-23.304 Y-65.38 E18.40423
G1 X-19.617 Y-66.523 E18.59681
G1 X-19.364 Y-66.594 E18.60992
G1 X-16.239 Y-67.378 E18.77066
G1 X-15.98 Y-67.435 E18.78389
G1 X-11.956 Y-68.211 E18.98834
G1 X-11.656 Y-68.259 E19.0035
G1 X-7.596 Y-68.778 E19.2077
G1 X-7.295 Y-68.807 E19.22279
G1 X-3.169 Y-69.072 E19.42906
G1 X-2.869 Y-69.082 E19.44404
G1 X1.145 Y-69.089 E19.6443
G1 X1.443 Y-69.08 E19.65917
G1 X5.514 Y-68.834 E19.86264
G1 X5.813 Y-68.807 E19.87762
G1 X9.858 Y-68.307 E20.08096
G1 X10.157 Y-68.26 E20.09606
G1 X14.263 Y-67.487 E20.30451
G1 X14.51 Y-67.434 E20.31711
G1 X17.082 Y-66.808 E20.44918
G1 X17.297 Y-66.75 E20.46029
G1 X20.556 Y-65.795 E20.62972
G1 X20.817 Y-65.711 E20.6434
G1 X24.671 Y-64.338 E20.84751
G1 X24.95 Y-64.228 E20.86247
G1 X28.668 Y-62.635 E21.06427
G1 X28.936 Y-62.51 E21.07903
G1 X32.494 Y-60.719 E21.27776
G1 X32.761 Y-60.574 E21.29291
G1 X36.447 Y-58.416 E21.50601
G1 X36.707 Y-58.253 E21.52132
G1 X40.068 Y-55.985 E21.72361
G1 X40.308 Y-55.812 E21.73837
G1 X43.475 Y-53.378 E21.93764
G0 F3000 X43.231 Y-53.061
G1 F1500 X43.447 Y-52.884 E21.95157
G1 X46.667 Y-50.067 E22.16502
G1 X46.841 Y-49.906 E22.17685
G1 X48.787 Y-48.009 E22.31243
G1 X48.927 Y-47.867 E22.32238
G1 X51.132 Y-45.514 E22.48326
G1 X51.315 Y-45.306 E22.49708
G1 X54.479 Y-41.472 E22.74508
G1 X54.662 Y-41.234 E22.76006
G1 X56.952 Y-38.038 E22.95621
G1 X57.106 Y-37.808 E22.97002
G1 X59.363 Y-34.198 E23.18243
G1 X59.505 Y-33.953 E23.19656
G1 X61.467 Y-30.314 E23.40282
G1 X61.606 Y-30.033 E23.41846
G1 X63.739 Y-25.296 E23.67764
G1 X63.856 Y-25.009 E23.6931
G1 X65.219 Y-21.305 E23.89001
G1 X65.304 Y-21.05 E23.90342
G1 X66.455 Y-17.217 E24.10308
G1 X66.518 Y-16.983 E24.11517
G1 X67.267 Y-13.877 E24.27458
G1 X67.319 Y-13.633 E24.28702
G1 X68.069 Y-9.508 E24.49619
G1 X68.11 Y-9.232 E24.51011
G1 X68.587 Y-5.155 E24.7149
G1 X68.611 Y-4.878 E24.72878
G1 X68.83 Y-.769 E24.93406
G1 X68.836 Y-.492 E24.94789
G1 X68.796 Y3.605 E25.1523
G1 X68.784 Y3.881 E25.16608
G1 X68.487 Y7.962 E25.37022
G1 X68.459 Y8.231 E25.38371
G1 X67.931 Y12.144 E25.5807
G1 X67.886 Y12.419 E25.59461
G1 X67.05 Y16.6 E25.80733
G1 X66.998 Y16.826 E25.8189
G1 X66.357 Y19.335 E25.94809
G1 X66.303 Y19.528 E25.95809
G1 X65.299 Y22.823 E26.12994
G1 X65.217 Y23.067 E26.14278
G1 X63.779 Y26.955 E26.3496
G1 X63.674 Y27.213 E26.36349
G1 X62.016 Y30.95 E26.56746
G1 X61.928 Y31.136 E26.57772
G1 X61.02 Y32.949 E26.67889
G1 X60.91 Y33.155 E26.69054
G1 X58.49 Y37.407 E26.93462
G1 X58.333 Y37.663 E26.9496
G1 X56.124 Y40.993 E27.14897
G1 X55.96 Y41.223 E27.16306
G1 X53.312 Y44.707 E27.38138
G1 X53.133 Y44.928 E27.39557
G1 X50.48 Y47.986 E27.59755
G1 X50.29 Y48.191 E27.6115
G1 X47.309 Y51.217 E27.82341
G1 X47.117 Y51.401 E27.83668
G1 X44.437 Y53.811 E28.0165
G1 X44.235 Y53.981 E28.02967
G1 X40.92 Y56.62 E28.24106
G1 X40.698 Y56.786 E28.25489
G1 X37.433 Y59.065 E28.45354
G1 X37.203 Y59.215 E28.46724
G1 X33.665 Y61.369 E28.67389
G1 X33.426 Y61.505 E28.68761
G1 X29.868 Y63.377 E28.88819
G1 X29.612 Y63.501 E28.90238
G1 X25.584 Y65.298 E29.12243
G1 X25.326 Y65.404 E29.13635
G1 X21.729 Y66.743 E29.32783
G1 X21.476 Y66.828 E29.34115
G1 X17.583 Y68.014 E29.54418
G1 X17.344 Y68.08 E29.55655
G1 X14.144 Y68.861 E29.72089
G1 X13.896 Y68.913 E29.73353
G1 X9.756 Y69.674 E29.94354
G1 X9.481 Y69.716 E29.95741
G1 X5.515 Y70.188 E30.15667
G1 X5.246 Y70.212 E30.17015
G1 X1.164 Y70.445 E30.37413
G1 X0.887 Y70.452 E30.38796
G1 X-3.186 Y70.428 E30.59116
G1 X-3.462 Y70.418 E30.60494
G1 X-7.563 Y70.136 E30.81002
G1 X-7.838 Y70.108 E30.82381
G1 X-11.932 Y69.566 E31.02985
G1 X-12.206 Y69.521 E31.0437
G1 X-16.169 Y68.74 E31.24522
G1 X-16.426 Y68.681 E31.25837
G1 X-20.104 Y67.724 E31.44798
G1 X-20.363 Y67.648 E31.46145
G1 X-24.334 Y66.35 E31.66987
G1 X-24.596 Y66.255 E31.68378
G1 X-28.403 Y64.738 E31.88823
G1 X-28.652 Y64.63 E31.90178
G1 X-32.239 Y62.937 E32.09966
G1 X-32.481 Y62.813 E32.11323
G1 X-36.032 Y60.86 E32.31542
G1 X-36.269 Y60.72 E32.32915
G1 X-39.758 Y58.506 E32.5353
G1 X-39.991 Y58.348 E32.54935
G1 X-43.407 Y55.86 E32.76019
G1 X-43.626 Y55.69 E32.77402
G1 X-46.683 Y53.155 E32.97215
G1 X-46.887 Y52.974 E32.98575
G1 X-49.857 Y50.183 E33.18909
G1 X-50.008 Y50.035 E33.19964
G1 X-51.588 Y48.4 E33.31307
G1 X-51.731 Y48.245 E33.32359
G1 X-54.296 Y45.323 E33.51757
G1 X-54.465 Y45.118 E33.53082
G1 X-56.932 Y41.94 E33.73154
G1 X-57.093 Y41.719 E33.74518
G1 X-59.401 Y38.33 E33.94974
G1 X-59.549 Y38.096 E33.96356
G1 X-61.624 Y34.594 E34.16664
G1 X-61.757 Y34.354 E34.18033
G1 X-63.617 Y30.715 E34.38422
G1 X-63.735 Y30.464 E34.39806
G1 X-65.379 Y26.676 E34.60407
G1 X-65.473 Y26.443 E34.61661
G1 X-66.598 Y23.384 E34.77921
G1 X-66.677 Y23.148 E34.79163
G1 X-67.894 Y19.155 E34.99989
G1 X-67.967 Y18.885 E35.01384
G1 X-68.918 Y14.864 E35.21999
G1 X-68.971 Y14.603 E35.23327
G1 X-69.603 Y10.958 E35.41784
G1 X-69.64 Y10.698 E35.43094
G1 X-70.101 Y6.6 E35.63668
G1 X-70.124 Y6.324 E35.6505
G1 X-70.323 Y2.276 E35.8527
G1 X-70.327 Y1.974 E35.86776
G1 X-70.232 Y-2.893 E36.11063
G1 X-70.217 Y-3.187 E36.12531
G1 X-69.88 Y-7.075 E36.32001
G1 X-69.847 Y-7.349 E36.33378
G1 X-69.216 Y-11.548 E36.54562
G1 X-69.166 Y-11.824 E36.55962
G1 X-68.304 Y-15.812 E36.76317
G1 X-68.244 Y-16.053 E36.77556
G1 X-67.364 Y-19.239 E36.94047
G1 X-67.292 Y-19.474 E36.95273
G1 X-66.023 Y-23.236 E37.15081
G1 X-65.928 Y-23.491 E37.16438
G1 X-64.374 Y-27.302 E37.36971
G1 X-64.262 Y-27.554 E37.38347
G1 X-62.513 Y-31.176 E37.58414
G1 X-62.387 Y-31.418 E37.59775
G1 X-60.376 Y-34.997 E37.80256
G1 X-60.233 Y-35.234 E37.81637
G1 X-58.031 Y-38.633 E38.01842
G1 X-57.873 Y-38.861 E38.03226
G1 X-55.382 Y-42.222 E38.24098
G1 X-55.208 Y-42.442 E38.25497
G1 X-52.538 Y-45.602 E38.46137
G1 X-52.352 Y-45.808 E38.47521
G1 X-49.533 Y-48.746 E38.67835
G1 X-49.339 Y-48.937 E38.69193
G1 X-46.394 Y-51.649 E38.89167
G1 X-46.187 Y-51.828 E38.90532
G1 X-42.99 Y-54.424 E39.11078
G1 X-42.77 Y-54.591 E39.12456
G1 X-39.486 Y-56.932 E39.32577
G1 X-39.248 Y-57.09 E39.34002
G1 X-35.483 Y-59.421 E39.56094
G1 X-35.235 Y-59.564 E39.57522
G1 X-31.57 Y-61.515 E39.78237
G1 X-31.32 Y-61.638 E39.79627
G1 X-27.661 Y-63.298 E39.99672
G1 X-27.405 Y-63.404 E40.01055
G1 X-23.445 Y-64.908 E40.22188
G1 X-23.186 Y-64.998 E40.23556
G1 X-19.499 Y-66.141 E40.42814
G1 X-19.267 Y-66.206 E40.44016
G1 X-16.142 Y-66.99 E40.6009
G1 X-15.904 Y-67.042 E40.61305
G1 X-11.88 Y-67.818 E40.81751
G1 X-11.605 Y-67.862 E40.8314
G1 X-7.545 Y-68.381 E41.03561
G1 X-7.269 Y-68.408 E41.04944
G1 X-3.143 Y-68.673 E41.25571
G1 X-2.869 Y-68.682 E41.26939
G1 X1.145 Y-68.689 E41.46965
G1 X1.418 Y-68.681 E41.48328
G1 X5.489 Y-68.435 E41.68675
G1 X5.764 Y-68.41 E41.70053
G1 X9.809 Y-67.91 E41.90387
G1 X10.083 Y-67.867 E41.91771
G1 X14.189 Y-67.094 E42.12615
G1 X14.416 Y-67.045 E42.13774
G1 X16.988 Y-66.419 E42.2698
G1 X17.184 Y-66.366 E42.27993
G1 X20.443 Y-65.411 E42.44936
G1 X20.683 Y-65.334 E42.46194
G1 X24.537 Y-63.961 E42.66605
G1 X24.793 Y-63.86 E42.67978
G1 X28.511 Y-62.267 E42.88158
G1 X28.756 Y-62.153 E42.89506
G1 X32.314 Y-60.362 E43.09379
G1 X32.559 Y-60.229 E43.1077
G1 X36.245 Y-58.071 E43.32079
G1 X36.483 Y-57.921 E43.33483
G1 X39.844 Y-55.653 E43.53712
G1 X40.064 Y-55.495 E43.55063
G1 X43.231 Y-53.061 E43.7499
G0 F3000 X42.987 Y-52.744
G1 F1500 X43.184 Y-52.583 E43.7626
G1 X46.404 Y-49.766 E43.97604
G1 X46.562 Y-49.619 E43.98681
G1 X48.508 Y-47.722 E44.12239
G1 X48.635 Y-47.593 E44.13142
G1 X50.84 Y-45.24 E44.29231
G1 X51.006 Y-45.051 E44.30486
G1 X54.17 Y-41.217 E44.55286
G1 X54.336 Y-41.001 E44.56645
G1 X56.626 Y-37.805 E44.7626
G1 X56.767 Y-37.596 E44.77518
G1 X59.024 Y-33.986 E44.98759
G1 X59.153 Y-33.763 E45.00044
G1 X61.115 Y-30.124 E45.2067
G1 X61.241 Y-29.868 E45.22093
G1 X63.374 Y-25.131 E45.48012
G1 X63.481 Y-24.87 E45.49419
G1 X64.844 Y-21.166 E45.6911
G1 X64.921 Y-20.935 E45.70325
G1 X66.072 Y-17.102 E45.90291
G1 X66.13 Y-16.89 E45.91388
G1 X66.879 Y-13.784 E46.07328
G1 X66.925 Y-13.562 E46.08459
G1 X67.675 Y-9.437 E46.29376
G1 X67.713 Y-9.186 E46.30642
G1 X68.19 Y-5.109 E46.51121
G1 X68.211 Y-4.857 E46.52383
G1 X68.43 Y-.748 E46.72912
G1 X68.436 Y-.496 E46.74169
G1 X68.396 Y3.601 E46.9461
G1 X68.385 Y3.852 E46.95864
G1 X68.088 Y7.933 E47.16278
G1 X68.063 Y8.178 E47.17507
G1 X67.535 Y12.091 E47.37206
G1 X67.493 Y12.34 E47.38465
G1 X66.657 Y16.521 E47.59737
G1 X66.611 Y16.727 E47.6079
G1 X65.97 Y19.236 E47.7371
G1 X65.92 Y19.412 E47.74623
G1 X64.916 Y22.707 E47.91808
G1 X64.842 Y22.929 E47.92975
G1 X63.404 Y26.817 E48.13657
G1 X63.308 Y27.051 E48.14919
G1 X61.65 Y30.788 E48.35315
G1 X61.571 Y30.957 E48.36246
G1 X60.663 Y32.77 E48.46362
G1 X60.562 Y32.958 E48.47427
G1 X58.142 Y37.21 E48.71835
G1 X57.999 Y37.442 E48.73195
G1 X55.79 Y40.772 E48.93131
G1 X55.642 Y40.981 E48.94409
G1 X52.994 Y44.465 E49.16241
G1 X52.83 Y44.666 E49.17536
G1 X50.177 Y47.724 E49.37733
G1 X50.006 Y47.91 E49.38994
G1 X47.025 Y50.936 E49.60186
G1 X46.85 Y51.103 E49.61393
G1 X44.17 Y53.513 E49.79374
G1 X43.986 Y53.668 E49.80574
G1 X40.671 Y56.307 E50.01714
G1 X40.469 Y56.458 E50.02972
G1 X37.204 Y58.737 E50.22837
G1 X36.995 Y58.874 E50.24084
G1 X33.457 Y61.028 E50.44749
G1 X33.239 Y61.151 E50.45997
G1 X29.681 Y63.023 E50.66055
G1 X29.449 Y63.136 E50.67343
G1 X25.421 Y64.933 E50.89348
G1 X25.186 Y65.029 E50.90614
G1 X21.589 Y66.368 E51.09763
G1 X21.36 Y66.445 E51.10968
G1 X17.467 Y67.631 E51.31272
G1 X17.249 Y67.691 E51.324
G1 X14.049 Y68.472 E51.48833
G1 X13.824 Y68.52 E51.49981
G1 X9.684 Y69.281 E51.70982
G1 X9.434 Y69.319 E51.72243
G1 X5.468 Y69.791 E51.92169
G1 X5.223 Y69.812 E51.93396
G1 X1.141 Y70.045 E52.13794
G1 X0.889 Y70.052 E52.15052
G1 X-3.184 Y70.028 E52.35373
G1 X-3.434 Y70.019 E52.36621
G1 X-7.535 Y69.737 E52.57129
G1 X-7.786 Y69.711 E52.58388
G1 X-11.88 Y69.169 E52.78991
G1 X-12.128 Y69.129 E52.80245
G1 X-16.091 Y68.348 E53.00396
G1 X-16.325 Y68.294 E53.01594
G1 X-20.003 Y67.337 E53.20555
G1 X-20.239 Y67.268 E53.21782
G1 X-24.21 Y65.97 E53.42625
G1 X-24.448 Y65.884 E53.43887
G1 X-28.255 Y64.367 E53.64333
G1 X-28.481 Y64.268 E53.65564
G1 X-32.068 Y62.575 E53.85352
G1 X-32.289 Y62.463 E53.86589
G1 X-35.84 Y60.51 E54.06807
G1 X-36.055 Y60.382 E54.08056
G1 X-39.544 Y58.168 E54.28671
G1 X-39.756 Y58.024 E54.2995
G1 X-43.172 Y55.536 E54.51033
G1 X-43.37 Y55.382 E54.52285
G1 X-46.427 Y52.847 E54.72098
