;FLAVOR:Marlin
;TIME:3709
;Filament used: 4.01794m
;Layer height: 0.2
;Generated with Cura_SteamEngine 1.1.0
M190 S45
M104 S220
M109 S220
G28
G1 Z50.00 F400
G92 E0
G1 F200 E3
G92 E0
M132 X Y Z A
M907 X100 Y100 Z50 A100
;LAYER_COUNT:74
;LAYER:0
M107
G0 F3000 X-23.623 Y-48.056 Z0.3
;TYPE:SKIRT
G1 F1500 X-18.692 Y-50.233 E0.26892
G1 X-13.886 Y-52.69 E0.53821
G1 X-9.253 Y-55.4 E0.80599
G1 X-4.742 Y-58.391 E1.07602
G1 X-2.588 Y-59.955 E1.20882
G1 X0.718 Y-62.539 E1.41816
G1 X1.23 Y-62.888 E1.44908
G1 X1.782 Y-63.168 E1.47996
G1 X2.366 Y-63.375 E1.51087
G1 X2.971 Y-63.505 E1.54174
G1 X3.589 Y-63.556 E1.57268
G1 X4.207 Y-63.527 E1.60354
G1 X4.817 Y-63.419 E1.63445
G1 X5.408 Y-63.233 E1.66536
G1 X5.808 Y-63.056 E1.68718
G1 X92.162 Y-20.187 E6.49707
G1 X97.19 Y-17.864 E6.77339
G1 X99.553 Y-16.891 E6.90089
G1 X104.699 Y-15.026 E7.17396
G1 X110.657 Y-13.255 E7.48406
G1 X111.289 Y-13.018 E7.51774
G1 X112.767 Y-12.341 E7.59884
G1 X113.486 Y-11.933 E7.64008
G1 X114.819 Y-11.017 E7.72078
G1 X115.46 Y-10.49 E7.76218
G1 X116.622 Y-9.352 E7.84332
G1 X117.138 Y-8.756 E7.88265
G1 X117.924 Y-7.681 E7.94909
G1 X118.241 Y-7.187 E7.97837
G1 X118.747 Y-6.28 E8.03019
G1 X119.046 Y-5.636 E8.06561
G1 X119.612 Y-4.136 E8.1456
G1 X119.826 Y-3.39 E8.18432
G1 X120.081 Y-2.126 E8.24865
G1 X120.172 Y-1.366 E8.28683
G1 X120.239 Y0.336 E8.37181
G1 X120.224 Y0.955 E8.4027
G1 X120.184 Y1.276 E8.41884
G1 X119.903 Y3.051 E8.5085
G1 X119.742 Y3.736 E8.54361
G1 X119.485 Y4.556 E8.58648
G1 X119.282 Y5.09 E8.61498
G1 X118.769 Y6.23 E8.67735
G1 X118.418 Y6.874 E8.71394
G1 X117.544 Y8.22 E8.79401
G1 X117.174 Y8.717 E8.82492
G1 X116.965 Y8.947 E8.84042
G1 X115.58 Y10.376 E8.93971
G1 X115.121 Y10.792 E8.97061
G1 X114.865 Y10.981 E8.98649
G1 X113.529 Y11.906 E9.06756
G1 X112.809 Y12.318 E9.10895
G1 X111.336 Y12.998 E9.18989
G1 X110.62 Y13.262 E9.22796
G1 X109.178 Y13.666 E9.30267
G1 X102.495 Y15.784 E9.65243
G1 X99.974 Y16.726 E9.7867
G1 X97.566 Y17.705 E9.91638
G1 X92.201 Y20.169 E10.21092
G1 X5.786 Y63.047 E15.02373
G1 X5.214 Y63.286 E15.05466
G1 X4.617 Y63.449 E15.08553
G1 X4.003 Y63.534 E15.11646
G1 X3.384 Y63.54 E15.14734
G1 X2.769 Y63.465 E15.17825
G1 X2.169 Y63.312 E15.20914
G1 X1.45 Y63.012 E15.24801
G1 X-2.09 Y61.184 E15.44678
G1 X-6.996 Y58.935 E15.71603
G1 X-12.03 Y56.962 E15.98578
G1 X-14.537 Y56.1 E16.11804
G1 X-19.742 Y54.554 E16.38893
G1 X-22.366 Y53.894 E16.52392
G1 X-24.926 Y53.33 E16.65471
G1 X-30.261 Y52.384 E16.92502
G1 X-35.601 Y51.746 E17.19333
G1 X-40.989 Y51.41 E17.46266
G1 X-46.367 Y51.379 E17.73097
G1 X-51.757 Y51.654 E18.00023
G1 X-57.084 Y52.228 E18.26754
G1 X-62.467 Y53.119 E18.53975
G1 X-64.985 Y53.646 E18.66809
G1 X-70.262 Y54.987 E18.93973
G1 X-75.405 Y56.608 E19.20876
G1 X-80.457 Y58.52 E19.47825
G1 X-82.906 Y59.568 E19.61115
G1 X-86.604 Y61.309 E19.81507
G1 X-108.264 Y72.054 E21.02135
G1 X-108.835 Y72.293 E21.05223
G1 X-109.433 Y72.456 E21.08316
G1 X-110.046 Y72.541 E21.11403
G1 X-110.666 Y72.546 E21.14496
G1 X-111.28 Y72.472 E21.17582
G1 X-111.881 Y72.319 E21.20676
G1 X-112.456 Y72.09 E21.23764
G1 X-112.997 Y71.789 E21.26852
G1 X-113.495 Y71.42 E21.29945
G1 X-113.941 Y70.991 E21.33032
G1 X-114.329 Y70.508 E21.36123
G1 X-114.65 Y69.978 E21.39214
G1 X-114.901 Y69.412 E21.42303
G1 X-115.078 Y68.818 E21.45396
G1 X-115.176 Y68.207 E21.48483
G1 X-115.197 Y67.755 E21.5074
G1 X-115.198 Y61.445 E21.82221
G1 X-115.158 Y60.827 E21.85311
G1 X-115.039 Y60.219 E21.88402
G1 X-114.843 Y59.632 E21.91489
G1 X-114.521 Y58.986 E21.9509
G1 X-113.111 Y56.62 E22.08831
G1 X-110.528 Y51.837 E22.35951
G1 X-108.224 Y46.924 E22.63024
G1 X-107.232 Y44.558 E22.75823
G1 X-105.343 Y39.439 E23.03045
G1 X-103.765 Y34.286 E23.29932
G1 X-102.468 Y29 E23.57086
G1 X-101.956 Y26.443 E23.70096
G1 X-101.116 Y21.087 E23.97144
G1 X-100.585 Y15.744 E24.23932
G1 X-100.356 Y10.36 E24.50817
G1 X-100.432 Y4.966 E24.77731
G1 X-100.812 Y-.4 E25.04569
G1 X-101.494 Y-5.738 E25.31417
G1 X-102.483 Y-11.063 E25.58437
G1 X-103.065 Y-13.594 E25.71394
G1 X-104.514 Y-18.861 E25.98648
G1 X-106.228 Y-23.943 E26.25405
G1 X-108.233 Y-28.936 E26.52249
G1 X-110.526 Y-33.831 E26.79216
G1 X-113.101 Y-38.601 E27.0626
G1 X-114.515 Y-40.974 E27.20042
G1 X-114.797 Y-41.525 E27.2313
G1 X-115.006 Y-42.108 E27.26219
G1 X-115.138 Y-42.713 E27.29309
G1 X-115.192 Y-43.426 E27.32876
G1 X-115.198 Y-49.749 E27.64422
G1 X-115.159 Y-50.368 E27.67516
G1 X-115.04 Y-50.975 E27.70602
G1 X-114.844 Y-51.563 E27.73694
G1 X-114.574 Y-52.12 E27.76783
G1 X-114.235 Y-52.638 E27.79871
G1 X-113.831 Y-53.108 E27.82963
G1 X-113.371 Y-53.523 E27.86054
G1 X-112.861 Y-53.874 E27.89143
G1 X-112.31 Y-54.157 E27.92233
G1 X-111.727 Y-54.366 E27.95323
G1 X-111.122 Y-54.499 E27.98413
G1 X-110.505 Y-54.553 E28.01503
G1 X-109.886 Y-54.527 E28.04594
G1 X-109.276 Y-54.421 E28.07683
G1 X-108.684 Y-54.238 E28.10775
G1 X-108.285 Y-54.064 E28.12946
G1 X-99.526 Y-49.769 E28.61616
G1 X-94.576 Y-47.649 E28.88481
G1 X-89.499 Y-45.81 E29.15421
G1 X-84.335 Y-44.262 E29.42317
G1 X-79.045 Y-42.997 E29.69453
G1 X-76.496 Y-42.503 E29.82407
G1 X-71.143 Y-41.696 E30.09415
G1 X-65.782 Y-41.194 E30.36278
G1 X-60.39 Y-40.997 E30.63196
G1 X-55.013 Y-41.104 E30.90028
G1 X-49.65 Y-41.516 E31.16863
G1 X-44.299 Y-42.233 E31.43797
G1 X-38.976 Y-43.255 E31.70839
G1 X-36.418 Y-43.859 E31.83952
G1 X-33.849 Y-44.543 E31.97215
G1 X-28.641 Y-46.171 E32.24438
G1 X-23.623 Y-48.056 E32.51181
G0 F3000 X-23.464 Y-47.689
G1 F1500 X-18.52 Y-49.872 E32.78144
G1 X-13.695 Y-52.339 E33.0518
G1 X-9.043 Y-55.059 E33.32065
G1 X-4.491 Y-58.078 E33.59316
G1 X-2.36 Y-59.626 E33.72456
G1 X0.965 Y-62.224 E33.93508
G1 X1.455 Y-62.557 E33.96464
G1 X1.986 Y-62.82 E33.9942
G1 X2.548 Y-63.01 E34.0238
G1 X3.13 Y-63.123 E34.05338
G1 X3.722 Y-63.157 E34.08296
G1 X4.313 Y-63.11 E34.11254
G1 X4.893 Y-62.985 E34.14214
G1 X5.63 Y-62.698 E34.1816
G1 X92.024 Y-19.809 E38.99371
G1 X96.998 Y-17.511 E39.26707
G1 X99.417 Y-16.515 E39.39759
G1 X104.57 Y-14.647 E39.67104
G1 X110.543 Y-12.872 E39.98191
G1 X111.122 Y-12.654 E40.01278
G1 X112.6 Y-11.977 E40.09389
G1 X113.26 Y-11.603 E40.13173
G1 X114.593 Y-10.687 E40.21242
G1 X115.18 Y-10.205 E40.25032
G1 X116.342 Y-9.067 E40.33146
G1 X116.815 Y-8.52 E40.36754
G1 X117.601 Y-7.445 E40.43398
G1 X117.891 Y-6.992 E40.46081
G1 X118.397 Y-6.085 E40.51263
G1 X118.672 Y-5.494 E40.54515
G1 X119.238 Y-3.994 E40.62513
G1 X119.434 Y-3.311 E40.66058
G1 X119.689 Y-2.047 E40.72492
G1 X119.773 Y-1.35 E40.75994
G1 X119.84 Y0.352 E40.84492
G1 X119.789 Y1.213 E40.88795
G1 X119.508 Y2.988 E40.97761
G1 X119.361 Y3.616 E41.00979
G1 X119.104 Y4.436 E41.05266
G1 X118.917 Y4.926 E41.07882
G1 X118.404 Y6.066 E41.14119
G1 X118.082 Y6.656 E41.17473
G1 X117.208 Y8.002 E41.25479
G1 X116.678 Y8.668 E41.29726
G1 X115.293 Y10.097 E41.39654
G1 X114.638 Y10.653 E41.4394
G1 X113.302 Y11.578 E41.52047
G1 X112.641 Y11.955 E41.55844
G1 X111.168 Y12.635 E41.63938
G1 X110.512 Y12.877 E41.67426
G1 X109.039 Y13.29 E41.75059
G1 X102.372 Y15.403 E42.09951
G1 X99.862 Y16.341 E42.23319
G1 X97.401 Y17.341 E42.36572
G1 X91.995 Y19.824 E42.66252
G1 X5.608 Y62.688 E47.47376
G1 X5.06 Y62.916 E47.50337
G1 X4.487 Y63.067 E47.53294
G1 X3.898 Y63.14 E47.56255
G1 X3.305 Y63.133 E47.59213
G1 X2.719 Y63.047 E47.62168
G1 X2.149 Y62.882 E47.65129
G1 X1.633 Y62.657 E47.67937
G1 X-1.91 Y60.827 E47.87832
G1 X-6.847 Y58.564 E48.14927
G1 X-11.894 Y56.586 E48.41971
G1 X-14.412 Y55.72 E48.55256
G1 X-19.649 Y54.165 E48.82511
G1 X-22.247 Y53.512 E48.95875
G1 X-24.867 Y52.934 E49.09261
G1 X-30.195 Y51.989 E49.36257
G1 X-35.583 Y51.346 E49.63329
G1 X-40.961 Y51.01 E49.90212
G1 X-46.384 Y50.979 E50.17268
G1 X-51.768 Y51.253 E50.44164
G1 X-57.156 Y51.834 E50.712
G1 X-62.517 Y52.722 E50.98311
G1 X-65.095 Y53.261 E51.11451
G1 X-70.359 Y54.598 E51.38547
G1 X-75.54 Y56.231 E51.65649
G1 X-80.615 Y58.153 E51.92723
G1 X-83.066 Y59.202 E52.06024
G1 X-86.773 Y60.946 E52.26462
G1 X-108.442 Y71.696 E53.47142
G1 X-108.989 Y71.923 E53.50097
G1 X-109.563 Y72.074 E53.53058
G1 X-110.151 Y72.147 E53.56014
G1 X-110.744 Y72.14 E53.58972
G1 X-111.331 Y72.054 E53.61932
G1 X-111.9 Y71.889 E53.64888
G1 X-112.443 Y71.65 E53.67848
G1 X-112.948 Y71.339 E53.70807
G1 X-113.407 Y70.964 E53.73764
G1 X-113.811 Y70.53 E53.76722
G1 X-114.153 Y70.046 E53.79679
G1 X-114.427 Y69.52 E53.82638
G1 X-114.628 Y68.962 E53.85596
G1 X-114.752 Y68.382 E53.88556
G1 X-114.797 Y67.755 E53.91692
G1 X-114.798 Y61.445 E54.23172
G1 X-114.758 Y60.853 E54.26133
G1 X-114.639 Y60.272 E54.29091
G1 X-114.443 Y59.713 E54.32047
G1 X-114.178 Y59.191 E54.34967
G1 X-112.758 Y56.809 E54.48803
G1 X-110.171 Y52.018 E54.75967
G1 X-107.859 Y47.088 E55.03133
G1 X-106.863 Y44.71 E55.15996
G1 X-104.959 Y39.552 E55.43426
G1 X-103.379 Y34.393 E55.70345
G1 X-102.074 Y29.077 E55.97654
G1 X-101.566 Y26.537 E56.10577
G1 X-100.719 Y21.136 E56.37852
G1 X-100.186 Y15.774 E56.64735
G1 X-99.956 Y10.372 E56.9171
G1 X-100.032 Y4.949 E57.18768
G1 X-100.414 Y-.444 E57.45741
G1 X-101.097 Y-5.79 E57.72629
G1 X-102.093 Y-11.151 E57.99833
G1 X-102.678 Y-13.698 E58.12871
G1 X-104.129 Y-18.968 E58.40142
G1 X-105.853 Y-24.083 E58.67071
G1 X-107.873 Y-29.112 E58.94109
G1 X-110.162 Y-33.998 E59.21028
G1 X-112.743 Y-38.78 E59.48139
G1 X-114.172 Y-41.178 E59.62065
G1 X-114.44 Y-41.707 E59.65024
G1 X-114.635 Y-42.267 E59.67982
G1 X-114.753 Y-42.848 E59.7094
G1 X-114.792 Y-43.427 E59.73835
G1 X-114.798 Y-49.75 E60.05381
G1 X-114.759 Y-50.341 E60.08336
G1 X-114.64 Y-50.922 E60.11295
G1 X-114.444 Y-51.482 E60.14255
G1 X-114.175 Y-52.011 E60.17215
G1 X-113.838 Y-52.498 E60.2017
G1 X-113.437 Y-52.936 E60.23133
G1 X-112.982 Y-53.315 E60.26087
G1 X-112.48 Y-53.63 E60.29044
G1 X-111.94 Y-53.875 E60.32002
G1 X-111.371 Y-54.045 E60.34965
G1 X-110.786 Y-54.137 E60.37919
G1 X-110.193 Y-54.149 E60.40879
G1 X-109.604 Y-54.082 E60.43836
G1 X-109.029 Y-53.936 E60.46796
G1 X-108.461 Y-53.705 E60.49855
G1 X-99.688 Y-49.403 E60.98603
G1 X-94.727 Y-47.279 E61.25526
G1 X-89.624 Y-45.43 E61.52605
G1 X-84.438 Y-43.876 E61.79615
G1 X-79.145 Y-42.609 E62.06767
G1 X-76.562 Y-42.109 E62.19893
G1 X-71.185 Y-41.298 E62.47023
G1 X-65.798 Y-40.794 E62.74016
G1 X-60.397 Y-40.597 E63.0098
G1 X-54.993 Y-40.704 E63.27946
G1 X-49.601 Y-41.118 E63.54925
G1 X-44.239 Y-41.837 E63.81916
G1 X-38.905 Y-42.861 E64.09013
G1 X-36.328 Y-43.47 E64.22224
G1 X-33.718 Y-44.165 E64.35699
G1 X-28.528 Y-45.786 E64.62826
G1 X-23.464 Y-47.689 E64.89815
G0 F3000 X-23.319 Y-47.315
G1 F1500 X-18.355 Y-49.507 E65.16888
G1 X-13.503 Y-51.988 E65.44076
G1 X-8.833 Y-54.719 E65.71066
G1 X-4.268 Y-57.747 E65.98396
G1 X-2.114 Y-59.311 E66.11676
G1 X1.211 Y-61.909 E66.32728
G1 X1.68 Y-62.224 E66.35546
G1 X2.189 Y-62.471 E66.38369
G1 X2.727 Y-62.643 E66.41187
G1 X3.284 Y-62.738 E66.44006
G1 X3.849 Y-62.753 E66.46826
G1 X4.411 Y-62.689 E66.49648
G1 X4.958 Y-62.545 E66.5247
G1 X5.453 Y-62.34 E66.55143
G1 X91.871 Y-19.439 E71.36488
G1 X96.839 Y-17.144 E71.6379
G1 X99.276 Y-16.14 E71.7694
G1 X104.451 Y-14.265 E72.044
G1 X110.429 Y-12.488 E72.35514
G1 X110.956 Y-12.291 E72.38321
G1 X112.434 Y-11.614 E72.46432
G1 X113.033 Y-11.274 E72.49868
G1 X114.366 Y-10.358 E72.57937
G1 X114.9 Y-9.919 E72.61386
G1 X116.062 Y-8.781 E72.695
G1 X116.492 Y-8.284 E72.72779
G1 X117.278 Y-7.209 E72.79423
G1 X117.542 Y-6.797 E72.81864
G1 X118.048 Y-5.89 E72.87046
G1 X118.297 Y-5.353 E72.89999
G1 X118.863 Y-3.853 E72.97998
G1 X119.042 Y-3.232 E73.01222
G1 X119.297 Y-1.968 E73.07655
G1 X119.373 Y-1.334 E73.10841
G1 X119.44 Y0.368 E73.19339
G1 X119.394 Y1.15 E73.23247
G1 X119.113 Y2.925 E73.32213
G1 X118.979 Y3.496 E73.35139
G1 X118.722 Y4.316 E73.39426
G1 X118.553 Y4.761 E73.41801
G1 X118.04 Y5.901 E73.48038
G1 X117.747 Y6.438 E73.5109
G1 X116.873 Y7.784 E73.59096
G1 X116.39 Y8.39 E73.62962
G1 X115.005 Y9.819 E73.72891
G1 X114.41 Y10.324 E73.76784
G1 X113.074 Y11.249 E73.84891
G1 X112.474 Y11.592 E73.88339
G1 X111.001 Y12.272 E73.96433
G1 X110.404 Y12.491 E73.99606
G1 X108.955 Y12.897 E74.07113
G1 X102.232 Y15.028 E74.42299
G1 X99.708 Y15.971 E74.55742
G1 X97.244 Y16.973 E74.69012
G1 X91.842 Y19.453 E74.98667
G1 X5.43 Y62.33 E79.79933
G1 X4.907 Y62.545 E79.82754
G1 X4.359 Y62.684 E79.85574
G1 X3.797 Y62.744 E79.88394
G1 X3.232 Y62.725 E79.91214
G1 X2.675 Y62.626 E79.94037
G1 X2.138 Y62.45 E79.96856
G1 X1.817 Y62.301 E79.98622
G1 X-1.73 Y60.469 E80.18539
G1 X-6.692 Y58.195 E80.4577
G1 X-11.738 Y56.217 E80.7281
G1 X-14.281 Y55.343 E80.86225
G1 X-19.558 Y53.776 E81.13688
G1 X-22.168 Y53.119 E81.27116
G1 X-24.761 Y52.547 E81.40364
G1 X-30.147 Y51.593 E81.67653
G1 X-35.547 Y50.947 E81.94786
G1 X-40.952 Y50.61 E82.21804
G1 X-46.384 Y50.579 E82.48904
G1 X-51.812 Y50.855 E82.7602
G1 X-57.215 Y51.438 E83.03132
G1 X-62.591 Y52.328 E83.30318
G1 X-65.162 Y52.866 E83.43422
G1 X-70.489 Y54.219 E83.70843
G1 X-75.66 Y55.849 E83.97892
G1 X-80.775 Y57.785 E84.25178
G1 X-83.226 Y58.835 E84.38481
G1 X-86.943 Y60.584 E84.58975
G1 X-108.619 Y71.337 E85.79693
G1 X-109.142 Y71.552 E85.82514
G1 X-109.69 Y71.691 E85.85335
G1 X-110.252 Y71.751 E85.88154
G1 X-110.817 Y71.732 E85.90975
G1 X-111.374 Y71.633 E85.93797
G1 X-111.911 Y71.456 E85.96618
G1 X-112.418 Y71.206 E85.99438
G1 X-112.884 Y70.887 E86.02256
G1 X-113.301 Y70.505 E86.05077
G1 X-113.66 Y70.068 E86.07899
G1 X-113.954 Y69.585 E86.1072
G1 X-114.176 Y69.065 E86.1354
G1 X-114.323 Y68.519 E86.16361
G1 X-114.397 Y67.755 E86.20191
G1 X-114.398 Y61.445 E86.51672
G1 X-114.358 Y60.881 E86.54492
G1 X-114.239 Y60.328 E86.57315
G1 X-114.043 Y59.798 E86.60134
G1 X-113.834 Y59.396 E86.62394
G1 X-112.415 Y57.015 E86.76223
G1 X-109.811 Y52.192 E87.03568
G1 X-107.495 Y47.255 E87.30774
G1 X-106.484 Y44.843 E87.43822
G1 X-104.587 Y39.703 E87.71156
G1 X-102.993 Y34.496 E87.98324
G1 X-101.684 Y29.165 E88.25711
G1 X-101.172 Y26.604 E88.3874
G1 X-100.321 Y21.184 E88.66112
G1 X-99.786 Y15.796 E88.93125
G1 X-99.555 Y10.384 E89.2015
G1 X-99.633 Y4.932 E89.47353
G1 X-100.015 Y-.471 E89.74376
G1 X-100.703 Y-5.86 E90.0148
G1 X-101.704 Y-11.245 E90.28806
G1 X-102.287 Y-13.781 E90.41788
G1 X-103.749 Y-19.093 E90.69276
G1 X-105.477 Y-24.218 E90.96259
G1 X-107.507 Y-29.274 E91.2344
G1 X-109.805 Y-34.179 E91.50464
G1 X-112.4 Y-38.986 E91.77718
G1 X-113.828 Y-41.383 E91.91638
G1 X-114.082 Y-41.888 E91.94458
G1 X-114.263 Y-42.424 E91.9728
G1 X-114.366 Y-42.98 E92.00101
G1 X-114.392 Y-43.427 E92.02335
G1 X-114.398 Y-49.75 E92.33881
G1 X-114.359 Y-50.314 E92.36701
G1 X-114.24 Y-50.867 E92.39523
G1 X-114.045 Y-51.397 E92.42341
G1 X-113.777 Y-51.895 E92.45162
G1 X-113.441 Y-52.35 E92.47984
G1 X-113.045 Y-52.753 E92.50803
G1 X-112.595 Y-53.096 E92.53626
G1 X-112.102 Y-53.373 E92.56447
G1 X-111.575 Y-53.577 E92.59266
G1 X-111.024 Y-53.705 E92.62089
G1 X-110.461 Y-53.754 E92.64908
G1 X-109.897 Y-53.722 E92.67726
G1 X-109.342 Y-53.612 E92.70549
G1 X-108.637 Y-53.345 E92.7431
G1 X-99.859 Y-49.041 E93.23085
G1 X-94.884 Y-46.911 E93.50084
G1 X-89.749 Y-45.05 E93.77333
G1 X-84.541 Y-43.489 E94.04458
G1 X-79.222 Y-42.216 E94.31744
G1 X-76.624 Y-41.713 E94.44946
G1 X-71.248 Y-40.903 E94.7207
G1 X-65.814 Y-40.394 E94.99299
G1 X-60.404 Y-40.196 E95.26308
G1 X-54.972 Y-40.305 E95.53414
G1 X-49.571 Y-40.719 E95.80438
G1 X-44.165 Y-41.444 E96.0765
G1 X-38.829 Y-42.468 E96.34758
G1 X-36.205 Y-43.088 E96.48209
G1 X-33.615 Y-43.778 E96.61582
G1 X-28.389 Y-45.41 E96.88896
G1 X-23.319 Y-47.315 E97.15917
G0 F3000 X-23.158 Y-46.949
G1 F1500 X-18.175 Y-49.149 E97.43092
G1 X-13.325 Y-51.629 E97.70269
G1 X-8.611 Y-54.386 E97.97514
G1 X-4.044 Y-57.414 E98.24852
G1 X-1.886 Y-58.981 E98.38157
G1 X1.457 Y-61.594 E98.59326
G1 X1.903 Y-61.891 E98.61999
G1 X2.388 Y-62.12 E98.64675
G1 X2.902 Y-62.273 E98.67351
